X: 2
T: McDermott's
M: 4/4
L: 1/8
K: Dmaj
Q: 114
A2AF/A/ BA FE|DB BA B2 Bc| da f/g/f/e/ dB BA| FB BA B2 BG |
A2AF/A/ BA FE|DB BA B2 Bc| da f/g/f/e/ dB BA| FB BA B2 Bc|
d2 de/f/ ec Ac|dB BA FB BA| d2 de/f/ ec Ac|Bb ba b2 ba|
f2 fe da fe|df BA df BA| dc/d/ ed/e/ fb ba|fb ba fe dB||



